COLOR/action 16/16/view-refresh.svg

<?xml version="1.0" encoding="UTF-8" standalone="no"?>
<svg
   xmlns:dc="http://purl.org/dc/elements/1.1/"
   xmlns:cc="http://creativecommons.org/ns#"
   xmlns:rdf="http://www.w3.org/1999/02/22-rdf-syntax-ns#"
   xmlns:svg="http://www.w3.org/2000/svg"
   xmlns="http://www.w3.org/2000/svg"
   xmlns:sodipodi="http://sodipodi.sourceforge.net/DTD/sodipodi-0.dtd"
   xmlns:inkscape="http://www.inkscape.org/namespaces/inkscape"
   height="16"
   width="16"
   version="1.1"
   id="svg14"
   sodipodi:docname="view-refresh.svg"
   inkscape:version="0.92.4 (5da689c313, 2019-01-14)">
  <metadata
     id="metadata20">
    <rdf:RDF>
      <cc:Work
         rdf:about="">
        <dc:format>image/svg+xml</dc:format>
        <dc:type
           rdf:resource="http://purl.org/dc/dcmitype/StillImage" />
      </cc:Work>
    </rdf:RDF>
  </metadata>
  <defs
     id="defs18" />
  <sodipodi:namedview
     pagecolor="#ffffff"
     bordercolor="#808080"
     borderopacity="1"
     objecttolerance="10"
     gridtolerance="10"
     guidetolerance="10"
     inkscape:pageopacity="0"
     inkscape:pageshadow="2"
     inkscape:window-width="1920"
     inkscape:window-height="1016"
     id="namedview16"
     showgrid="false"
     inkscape:zoom="14.75"
     inkscape:cx="0.30508475"
     inkscape:cy="8"
     inkscape:window-x="0"
     inkscape:window-y="27"
     inkscape:window-maximized="1"
     inkscape:current-layer="svg14" />
  <g
     fill="#4bb9f4"
     transform="translate(0 .000454)"
     id="g12">
    <path
       d="m13.685631.82300501-1.621567 1.62359629c-1.217681-.9044265-2.657896-1.46775256-4.1827896-1.49370859h-.00203c-4.0510634-.05702174-7.37791005 3.22224629-7.3792444 7.27371119.001028 3.1718001 2.0612905 5.9818471 5.0859152 6.9368141 3.025534.952786 6.3254348-.166911 8.1463938-2.764172l.576377-.817886-1.643891-1.154783-.574347.821945c-1.319478 1.886562-3.7063938 2.696257-5.9017726 2.003113-2.1960357-.691419-3.6868808-2.722722-3.6855635-5.0250311-.0013197-2.3023093 1.4895279-4.3356426 3.6855635-5.0270598 1.5123808-.4774576 3.0990237-.1391583 4.4100936.7143823l-1.2501694 1.2501691.7570014.2820999c.718852.2680966 1.47042.5170563 2.258829.7488837h.0021v.00203c.781261.2255888 1.555431.424423 2.321743.5966717l.811727.182654-.190773-.8097687c-.182558-.7741375-.385484-1.5435811-.606819-2.3075361-.223467-.7622525-.469609-1.5175634-.738736-2.2649168z"
       fill="#1a7fd4"
       id="path4" />
    <g
       transform="translate(0 -.000454)"
       id="g10">
      <path
         d="m13.685547.82421875-1.621094 1.62304685c-1.217681-.9044265-2.6587-1.46818457-4.1835936-1.4941406h-.0019532c-4.0510633-.05702174-7.37757185 3.2219726-7.3789062 7.2734375.00002145.0661798.01382052.1294613.015625.1953125.16424536-3.9087731 3.4150726-7.024324 7.3632812-6.96875h.0019532c1.5248936.025956 2.9659126.5897141 4.1835936 1.4941406l1.621094-1.6230468.277344.7695312c.269127.7473534.516767 1.5033725.740234 2.265625.221335.763955.422911 1.5344562.605469 2.3085938l.066406.28125.125.0273437-.191406-.8085937c-.182558-.7741375-.384134-1.5446388-.605469-2.3085938-.223467-.7622525-.471107-1.5182716-.740234-2.265625zm-3.402344 3.40429685-.9355468.9355469.3652344.1367187.8867184-.8867187c-.102955-.0670266-.210221-.1250204-.316406-.1855469zm-7.7597655 4.2480469c-.0039679.0840915-.0195799.1651237-.0195313.25-.0013172 2.3023105 1.4895112 4.3339715 3.6855469 5.0253905 2.1953788.693144 4.5809129-.117344 5.9003909-2.003906l.574218-.820313 1.408204.988282.236328-.333985-1.644532-1.154297-.574218.820313c-1.319478 1.886562-3.7050121 2.69705-5.9003909 2.003906-2.1152622-.665987-3.5625794-2.578359-3.6660156-4.7753905z"
         fill="#f0f1f2"
         opacity=".3"
         id="path6" />
      <path
         d="m7.3320312 2.4902344c-.3819117.0220903-.7644829.0896199-1.1425781.2089844-2.1960356.6914172-3.6868665 2.7250344-3.6855469 5.0273437-.0000484.0846825.0155815.166104.0195313.25.1036626-2.1969276 1.5509385-4.1114162 3.6660156-4.7773437 1.3936171-.439964 2.8477418-.1809428 4.0937499.5292968l.316406-.3144531c-.9833021-.6401554-2.1218424-.9900992-3.2675778-.9238281zm2.3808594 2.3105468-.3652344.3632813.7578128.2832031c.718852.2680966 1.471356.5162195 2.259765.7480469h.001954v.0019531c.781261.2255888 1.554.4254076 2.320312.5976563l.8125.1816406-.125-.5273437-.6875-.1542969c-.766312-.1722487-1.539051-.3720675-2.320312-.5976563v-.0019531h-.001954c-.788409-.2318274-1.540913-.4799503-2.259765-.7480469zm-9.1972656 3.1210938c-.00427875.1018274-.01559112.2018226-.015625.3046875.001028 3.1718005 2.0613128 5.9825335 5.0859375 6.9374995 3.025534.952786 6.3255255-.16641 8.1464845-2.763671l.576172-.81836-.236328-.166015-.339844.484375c-1.820959 2.597261-5.1209505 3.716457-8.1464845 2.763671-2.9615157-.935041-4.98563355-3.651983-5.0703125-6.742187z"
         fill="#000"
         opacity=".2"
         id="path8" />
    </g>
  </g>
</svg>

<?xml version="1.0" encoding="UTF-8" standalone="no"?>
<!-- Created with Inkscape (http://www.inkscape.org/) -->

<svg
   xmlns:dc="http://purl.org/dc/elements/1.1/"
   xmlns:cc="http://creativecommons.org/ns#"
   xmlns:rdf="http://www.w3.org/1999/02/22-rdf-syntax-ns#"
   xmlns:svg="http://www.w3.org/2000/svg"
   xmlns="http://www.w3.org/2000/svg"
   xmlns:xlink="http://www.w3.org/1999/xlink"
   xmlns:sodipodi="http://sodipodi.sourceforge.net/DTD/sodipodi-0.dtd"
   xmlns:inkscape="http://www.inkscape.org/namespaces/inkscape"
   version="1.1"
   width="16"
   height="16"
   id="svg2473"
   sodipodi:docname="view-refresh.svg"
   inkscape:version="0.92.4 (5da689c313, 2019-01-14)">
  <metadata
     id="metadata37">
    <rdf:RDF>
      <cc:Work
         rdf:about="">
        <dc:format>image/svg+xml</dc:format>
        <dc:type
           rdf:resource="http://purl.org/dc/dcmitype/StillImage" />
      </cc:Work>
    </rdf:RDF>
  </metadata>
  <sodipodi:namedview
     pagecolor="#ffffff"
     bordercolor="#666666"
     borderopacity="1"
     objecttolerance="10"
     gridtolerance="10"
     guidetolerance="10"
     inkscape:pageopacity="0"
     inkscape:pageshadow="2"
     inkscape:window-width="1920"
     inkscape:window-height="1016"
     id="namedview35"
     showgrid="false"
     inkscape:zoom="58.152083"
     inkscape:cx="8.2285155"
     inkscape:cy="7.7868506"
     inkscape:window-x="0"
     inkscape:window-y="27"
     inkscape:window-maximized="1"
     inkscape:current-layer="g6" />
  <defs
     id="defs2475">
    <linearGradient
       id="linearGradient3719">
      <stop
         id="stop3721"
         style="stop-color:#538ec6;stop-opacity:1"
         offset="0" />
      <stop
         id="stop3723"
         style="stop-color:#538ec6;stop-opacity:0"
         offset="1" />
    </linearGradient>
    <linearGradient
       id="linearGradient3709">
      <stop
         id="stop3711"
         style="stop-color:#6396cd;stop-opacity:0"
         offset="0" />
      <stop
         id="stop3713"
         style="stop-color:#6396cd;stop-opacity:1"
         offset="1" />
    </linearGradient>
    <linearGradient
       id="linearGradient3533">
      <stop
         id="stop3535"
         style="stop-color:#93b9dd;stop-opacity:1"
         offset="0" />
      <stop
         id="stop3545"
         style="stop-color:#6396cd;stop-opacity:1"
         offset="1" />
    </linearGradient>
    <linearGradient
       x1="108.97799"
       y1="230.02158"
       x2="107.36588"
       y2="224.30264"
       id="linearGradient6283"
       xlink:href="#linearGradient6277"
       gradientUnits="userSpaceOnUse" />
    <linearGradient
       id="linearGradient6277">
      <stop
         id="stop6279"
         style="stop-color:#ffffff;stop-opacity:1"
         offset="0" />
      <stop
         id="stop6281"
         style="stop-color:#ffffff;stop-opacity:0"
         offset="1" />
    </linearGradient>
    <linearGradient
       x1="107.25907"
       y1="222.87531"
       x2="108.83574"
       y2="226.83432"
       id="linearGradient6291"
       xlink:href="#linearGradient6285"
       gradientUnits="userSpaceOnUse" />
    <linearGradient
       id="linearGradient6285">
      <stop
         id="stop6287"
         style="stop-color:#ffffff;stop-opacity:1"
         offset="0" />
      <stop
         id="stop6289"
         style="stop-color:#ffffff;stop-opacity:0"
         offset="1" />
    </linearGradient>
    <linearGradient
       x1="8"
       y1="0"
       x2="9"
       y2="9"
       id="linearGradient3697"
       xlink:href="#linearGradient3533"
       gradientUnits="userSpaceOnUse" />
    <linearGradient
       x1="107.98247"
       y1="219.63542"
       x2="108.84705"
       y2="227.40942"
       id="linearGradient3705"
       xlink:href="#linearGradient3533"
       gradientUnits="userSpaceOnUse"
       gradientTransform="matrix(1.2440776,0,0,1.2452406,-127.94358,-272.46683)" />
    <linearGradient
       x1="112.3054"
       y1="227.40942"
       x2="108.84705"
       y2="230.86455"
       id="linearGradient3715"
       xlink:href="#linearGradient3709"
       gradientUnits="userSpaceOnUse" />
    <linearGradient
       x1="110.58552"
       y1="230.02382"
       x2="114.06341"
       y2="227.41991"
       id="linearGradient3725"
       xlink:href="#linearGradient3719"
       gradientUnits="userSpaceOnUse" />
    <linearGradient
       id="linearGradient1228">
      <stop
         offset="0"
         style="stop-color:#ffffff;stop-opacity:1"
         id="stop1220" />
      <stop
         offset="0.49999997"
         style="stop-color:#ffffff;stop-opacity:0.23529412"
         id="stop1222" />
      <stop
         offset="0.75"
         style="stop-color:#ffffff;stop-opacity:0.15686275"
         id="stop1224" />
      <stop
         offset="1"
         style="stop-color:#ffffff;stop-opacity:0.39215687"
         id="stop1226" />
    </linearGradient>
    <linearGradient
       y2="23.024765"
       x2="-3.7066221"
       y1="39.158836"
       x1="-3.7066221"
       gradientTransform="matrix(0.49411917,0,0,0.49433627,-17.039099,-4.0091181)"
       gradientUnits="userSpaceOnUse"
       id="linearGradient1218-7-5"
       xlink:href="#linearGradient961" />
    <linearGradient
       id="linearGradient961">
      <stop
         id="stop953"
         style="stop-color:#ffffff;stop-opacity:1"
         offset="0" />
      <stop
         id="stop955"
         style="stop-color:#ffffff;stop-opacity:0.23529412"
         offset="0.37309238" />
      <stop
         id="stop957"
         style="stop-color:#ffffff;stop-opacity:0.15686275"
         offset="0.75" />
      <stop
         id="stop959"
         style="stop-color:#ffffff;stop-opacity:0.39215687"
         offset="1" />
    </linearGradient>
    <linearGradient
       xlink:href="#linearGradient974"
       id="linearGradient4273-1-6-8-5-8-6"
       gradientUnits="userSpaceOnUse"
       gradientTransform="matrix(0.29115381,0,0,0.32301762,-27.426745,-2.5474184)"
       x1="29.555929"
       y1="28.447401"
       x2="26.135351"
       y2="34.106888" />
    <linearGradient
       id="linearGradient974">
      <stop
         offset="0"
         style="stop-color:#ffffff;stop-opacity:1"
         id="stop966" />
      <stop
         offset="0.00364194"
         style="stop-color:#ffffff;stop-opacity:0.23529412"
         id="stop968" />
      <stop
         offset="0.53919154"
         style="stop-color:#ffffff;stop-opacity:0.15686275"
         id="stop970" />
      <stop
         offset="1"
         style="stop-color:#ffffff;stop-opacity:0.39215687"
         id="stop972" />
    </linearGradient>
    <linearGradient
       y2="3256.7898"
       x2="2100.5779"
       y1="3215.1467"
       x1="2100.5779"
       gradientTransform="matrix(0.51816829,0,0,0.36099449,-1094.7896,-1159.4711)"
       gradientUnits="userSpaceOnUse"
       id="linearGradient1252-6"
       xlink:href="#linearGradient4382" />
    <linearGradient
       id="linearGradient4382">
      <stop
         id="stop4384"
         style="stop-color:#64baff;stop-opacity:1"
         offset="0" />
      <stop
         id="stop4386"
         style="stop-color:#3689e6;stop-opacity:1"
         offset="1" />
    </linearGradient>
  </defs>
  <ellipse
     ry="2.472136"
     rx="4"
     cy="9.2117519"
     cx="8"
     id="path998"
     style="opacity:0.98999999;vector-effect:none;fill:none;fill-opacity:1;stroke:none;stroke-width:0.99999982;stroke-linecap:butt;stroke-linejoin:miter;stroke-miterlimit:4;stroke-dasharray:none;stroke-dashoffset:0;stroke-opacity:1;marker:none" />
  <g
     id="g6"
     transform="translate(0,4.5405558e-4)"
     style="color:#000000;fill:#4bb9f4;fill-opacity:1">
    <path
       style="color:#000000;font-style:normal;font-variant:normal;font-weight:normal;font-stretch:normal;font-size:medium;line-height:normal;font-family:sans-serif;font-variant-ligatures:normal;font-variant-position:normal;font-variant-caps:normal;font-variant-numeric:normal;font-variant-alternates:normal;font-feature-settings:normal;text-indent:0;text-align:start;text-decoration:none;text-decoration-line:none;text-decoration-style:solid;text-decoration-color:#000000;letter-spacing:normal;word-spacing:normal;text-transform:none;writing-mode:lr-tb;direction:ltr;text-orientation:mixed;dominant-baseline:auto;baseline-shift:baseline;text-anchor:start;white-space:normal;shape-padding:0;clip-rule:nonzero;display:inline;overflow:visible;visibility:visible;opacity:1;isolation:auto;mix-blend-mode:normal;color-interpolation:sRGB;color-interpolation-filters:linearRGB;solid-color:#000000;solid-opacity:1;vector-effect:none;fill:#1a7fd4;fill-opacity:1;fill-rule:nonzero;stroke:none;stroke-width:1.0391016;stroke-linecap:butt;stroke-linejoin:miter;stroke-miterlimit:4;stroke-dasharray:none;stroke-dashoffset:0;stroke-opacity:1;marker:none;color-rendering:auto;image-rendering:auto;shape-rendering:auto;text-rendering:auto;enable-background:accumulate"
       d="M 13.685631,0.82300501 12.064064,2.4466013 C 10.846383,1.5421748 9.406168,0.97884874 7.8812744,0.95289271 h -0.00203 C 3.828181,0.89587097 0.50133435,4.175139 0.5,8.2266039 0.501028,11.398404 2.5612905,14.208451 5.5859152,15.163418 8.6114492,16.116204 11.91135,14.996507 13.732309,12.399246 l 0.576377,-0.817886 -1.643891,-1.154783 -0.574347,0.821945 C 10.77097,13.135084 8.3840542,13.944779 6.1886754,13.251635 3.9926397,12.560216 2.5017946,10.528913 2.5031119,8.2266039 2.5017922,5.9242946 3.9926398,3.8909613 6.1886754,3.1995441 7.7010562,2.7220865 9.2876991,3.0603858 10.598769,3.9139264 L 9.3485996,5.1640955 10.105601,5.4461954 c 0.718852,0.2680966 1.47042,0.5170563 2.258829,0.7488837 h 0.0021 v 0.00203 c 0.781261,0.2255888 1.555431,0.424423 2.321743,0.5966717 L 15.5,6.9764348 15.309227,6.1666661 C 15.126669,5.3925286 14.923743,4.623085 14.702408,3.85913 14.478941,3.0968775 14.232799,2.3415666 13.963672,1.5942132 Z"
       id="path2"
       inkscape:connector-curvature="0"
       sodipodi:nodetypes="ccccccccccccccccccccccccc" />
    <path
       style="color:#000000;font-style:normal;font-variant:normal;font-weight:normal;font-stretch:normal;font-size:medium;line-height:normal;font-family:sans-serif;font-variant-ligatures:normal;font-variant-position:normal;font-variant-caps:normal;font-variant-numeric:normal;font-variant-alternates:normal;font-feature-settings:normal;text-indent:0;text-align:start;text-decoration:none;text-decoration-line:none;text-decoration-style:solid;text-decoration-color:#000000;letter-spacing:normal;word-spacing:normal;text-transform:none;writing-mode:lr-tb;direction:ltr;text-orientation:mixed;dominant-baseline:auto;baseline-shift:baseline;text-anchor:start;white-space:normal;shape-padding:0;clip-rule:nonzero;display:inline;overflow:visible;visibility:visible;opacity:0.3;isolation:auto;mix-blend-mode:normal;color-interpolation:sRGB;color-interpolation-filters:linearRGB;solid-color:#000000;solid-opacity:1;vector-effect:none;fill:#f0f1f2;fill-opacity:1;fill-rule:nonzero;stroke:none;stroke-width:1.0391016;stroke-linecap:butt;stroke-linejoin:miter;stroke-miterlimit:4;stroke-dasharray:none;stroke-dashoffset:0;stroke-opacity:1;marker:none;color-rendering:auto;image-rendering:auto;shape-rendering:auto;text-rendering:auto;enable-background:accumulate"
       d="M 13.685547 0.82421875 L 12.064453 2.4472656 C 10.846772 1.5428391 9.405753 0.97908103 7.8808594 0.953125 L 7.8789062 0.953125 C 3.8278429 0.89610326 0.50133435 4.1750976 0.5 8.2265625 C 0.50002145 8.2927423 0.51382052 8.3560238 0.515625 8.421875 C 0.67987036 4.5131019 3.9306976 1.397551 7.8789062 1.453125 L 7.8808594 1.453125 C 9.405753 1.479081 10.846772 2.0428391 12.064453 2.9472656 L 13.685547 1.3242188 L 13.962891 2.09375 C 14.232018 2.8411034 14.479658 3.5971225 14.703125 4.359375 C 14.92446 5.12333 15.126036 5.8938312 15.308594 6.6679688 L 15.375 6.9492188 L 15.5 6.9765625 L 15.308594 6.1679688 C 15.126036 5.3938313 14.92446 4.62333 14.703125 3.859375 C 14.479658 3.0971225 14.232018 2.3411034 13.962891 1.59375 L 13.685547 0.82421875 z M 10.283203 4.2285156 L 9.3476562 5.1640625 L 9.7128906 5.3007812 L 10.599609 4.4140625 C 10.496654 4.3470359 10.389388 4.2890421 10.283203 4.2285156 z M 2.5234375 8.4765625 C 2.5194696 8.560654 2.5038576 8.6416862 2.5039062 8.7265625 C 2.502589 11.028873 3.9934174 13.060534 6.1894531 13.751953 C 8.3848319 14.445097 10.770366 13.634609 12.089844 11.748047 L 12.664062 10.927734 L 14.072266 11.916016 L 14.308594 11.582031 L 12.664062 10.427734 L 12.089844 11.248047 C 10.770366 13.134609 8.3848319 13.945097 6.1894531 13.251953 C 4.0741909 12.585966 2.6268737 10.673594 2.5234375 8.4765625 z "
       transform="translate(0,-4.5405558e-4)"
       id="path860" />
    <path
       style="color:#000000;font-style:normal;font-variant:normal;font-weight:normal;font-stretch:normal;font-size:medium;line-height:normal;font-family:sans-serif;font-variant-ligatures:normal;font-variant-position:normal;font-variant-caps:normal;font-variant-numeric:normal;font-variant-alternates:normal;font-feature-settings:normal;text-indent:0;text-align:start;text-decoration:none;text-decoration-line:none;text-decoration-style:solid;text-decoration-color:#000000;letter-spacing:normal;word-spacing:normal;text-transform:none;writing-mode:lr-tb;direction:ltr;text-orientation:mixed;dominant-baseline:auto;baseline-shift:baseline;text-anchor:start;white-space:normal;shape-padding:0;clip-rule:nonzero;display:inline;overflow:visible;visibility:visible;opacity:0.2;isolation:auto;mix-blend-mode:normal;color-interpolation:sRGB;color-interpolation-filters:linearRGB;solid-color:#000000;solid-opacity:1;vector-effect:none;fill:#000000;fill-opacity:1;fill-rule:nonzero;stroke:none;stroke-width:1.0391016;stroke-linecap:butt;stroke-linejoin:miter;stroke-miterlimit:4;stroke-dasharray:none;stroke-dashoffset:0;stroke-opacity:1;marker:none;color-rendering:auto;image-rendering:auto;shape-rendering:auto;text-rendering:auto;enable-background:accumulate"
       d="M 7.3320312 2.4902344 C 6.9501195 2.5123247 6.5675483 2.5798543 6.1894531 2.6992188 C 3.9934175 3.390636 2.5025866 5.4242532 2.5039062 7.7265625 C 2.5038578 7.811245 2.5194877 7.8926665 2.5234375 7.9765625 C 2.6271001 5.7796349 4.074376 3.8651463 6.1894531 3.1992188 C 7.5830702 2.7592548 9.0371949 3.018276 10.283203 3.7285156 L 10.599609 3.4140625 C 9.6163069 2.7739071 8.4777666 2.4239633 7.3320312 2.4902344 z M 9.7128906 4.8007812 L 9.3476562 5.1640625 L 10.105469 5.4472656 C 10.824321 5.7153622 11.576825 5.9634851 12.365234 6.1953125 L 12.367188 6.1953125 L 12.367188 6.1972656 C 13.148449 6.4228544 13.921188 6.6226732 14.6875 6.7949219 L 15.5 6.9765625 L 15.375 6.4492188 L 14.6875 6.2949219 C 13.921188 6.1226732 13.148449 5.9228544 12.367188 5.6972656 L 12.367188 5.6953125 L 12.365234 5.6953125 C 11.576825 5.4634851 10.824321 5.2153622 10.105469 4.9472656 L 9.7128906 4.8007812 z M 0.515625 7.921875 C 0.51134625 8.0237024 0.50003388 8.1236976 0.5 8.2265625 C 0.501028 11.398363 2.5613128 14.209096 5.5859375 15.164062 C 8.6114715 16.116848 11.911463 14.997652 13.732422 12.400391 L 14.308594 11.582031 L 14.072266 11.416016 L 13.732422 11.900391 C 11.911463 14.497652 8.6114715 15.616848 5.5859375 14.664062 C 2.6244218 13.729021 0.60030395 11.012079 0.515625 7.921875 z "
       transform="translate(0,-4.5405558e-4)"
       id="path865" />
  </g>
</svg>
